X:138
T:Coal Black Rose
M:C|
L:1/8
K:Db
B3B  B2A2|G2A2 B4|
BBBB B2A2|GGAA B4|
B3B  B2A2|G2F2 E4||
